images/64981.svg

<?xml version="1.0" encoding="UTF-8"?>
<svg xmlns="http://www.w3.org/2000/svg" xmlns:xlink="http://www.w3.org/1999/xlink" width="300pt" height="300pt" viewBox="0 0 300 300" version="1.1">
<defs>
<g>
<symbol overflow="visible" id="glyph0-0">
<path style="stroke:none;" d="M 0.546875 1.9375 L 0.546875 -7.75 L 6.046875 -7.75 L 6.046875 1.9375 Z M 1.171875 1.328125 L 5.4375 1.328125 L 5.4375 -7.140625 L 1.171875 -7.140625 Z M 1.171875 1.328125 "/>
</symbol>
<symbol overflow="visible" id="glyph0-1">
<path style="stroke:none;" d="M 4.328125 -7.28125 C 3.546875 -7.28125 2.921875 -6.984375 2.453125 -6.390625 C 1.992188 -5.804688 1.765625 -5.007812 1.765625 -4 C 1.765625 -2.988281 1.992188 -2.1875 2.453125 -1.59375 C 2.921875 -1.007812 3.546875 -0.71875 4.328125 -0.71875 C 5.117188 -0.71875 5.742188 -1.007812 6.203125 -1.59375 C 6.660156 -2.1875 6.890625 -2.988281 6.890625 -4 C 6.890625 -5.007812 6.660156 -5.804688 6.203125 -6.390625 C 5.742188 -6.984375 5.117188 -7.28125 4.328125 -7.28125 Z M 4.328125 -8.171875 C 5.453125 -8.171875 6.351562 -7.789062 7.03125 -7.03125 C 7.707031 -6.28125 8.046875 -5.269531 8.046875 -4 C 8.046875 -2.738281 7.707031 -1.726562 7.03125 -0.96875 C 6.351562 -0.21875 5.453125 0.15625 4.328125 0.15625 C 3.203125 0.15625 2.300781 -0.21875 1.625 -0.96875 C 0.957031 -1.71875 0.625 -2.726562 0.625 -4 C 0.625 -5.269531 0.957031 -6.28125 1.625 -7.03125 C 2.300781 -7.789062 3.203125 -8.171875 4.328125 -8.171875 Z M 4.328125 -8.171875 "/>
</symbol>
<symbol overflow="visible" id="glyph0-2">
<path style="stroke:none;" d="M 1.078125 -8.015625 L 2.171875 -8.015625 L 2.171875 -4.734375 L 6.109375 -4.734375 L 6.109375 -8.015625 L 7.1875 -8.015625 L 7.1875 0 L 6.109375 0 L 6.109375 -3.8125 L 2.171875 -3.8125 L 2.171875 0 L 1.078125 0 Z M 1.078125 -8.015625 "/>
</symbol>
</g>
</defs>
<g id="surface41001">
<rect x="0" y="0" width="300" height="300" style="fill:rgb(100%,100%,100%);fill-opacity:1;stroke:none;"/>
<path style="fill:none;stroke-width:1.2;stroke-linecap:butt;stroke-linejoin:miter;stroke:rgb(0%,0%,0%);stroke-opacity:1;stroke-miterlimit:10;" d="M 67.917969 213.878906 L 81.394531 210.1875 "/>
<path style="fill:none;stroke-width:1.2;stroke-linecap:butt;stroke-linejoin:miter;stroke:rgb(100%,0%,0%);stroke-opacity:1;stroke-miterlimit:10;" d="M 81.394531 210.1875 L 94.871094 206.492188 "/>
<path style="fill:none;stroke-width:1.2;stroke-linecap:butt;stroke-linejoin:miter;stroke:rgb(100%,0%,0%);stroke-opacity:1;stroke-miterlimit:10;" d="M 94.871094 206.492188 L 98.410156 192.976562 "/>
<path style="fill:none;stroke-width:1.2;stroke-linecap:butt;stroke-linejoin:miter;stroke:rgb(0%,0%,0%);stroke-opacity:1;stroke-miterlimit:10;" d="M 98.410156 192.976562 L 101.949219 179.457031 "/>
<path style=" stroke:none;fill-rule:nonzero;fill:rgb(100%,100%,100%);fill-opacity:1;" d="M 90.871094 199.992188 L 99.871094 199.992188 L 99.871094 212.992188 L 90.871094 212.992188 Z M 90.871094 199.992188 "/>
<g style="fill:rgb(100%,0%,0%);fill-opacity:1;">
  <use xlink:href="#glyph0-1" x="90.871094" y="209.893555"/>
</g>
<path style="fill:none;stroke-width:1.2;stroke-linecap:butt;stroke-linejoin:miter;stroke:rgb(0%,0%,0%);stroke-opacity:1;stroke-miterlimit:10;" d="M 101.949219 179.457031 L 82.074219 159.808594 "/>
<path style="fill:none;stroke-width:1.2;stroke-linecap:butt;stroke-linejoin:miter;stroke:rgb(0%,0%,0%);stroke-opacity:1;stroke-miterlimit:10;" d="M 104.585938 172.816406 L 88.6875 157.097656 "/>
<path style="fill:none;stroke-width:1.2;stroke-linecap:butt;stroke-linejoin:miter;stroke:rgb(0%,0%,0%);stroke-opacity:1;stroke-miterlimit:10;" d="M 128.902344 172.070312 L 101.949219 179.457031 "/>
<path style="fill:none;stroke-width:1.2;stroke-linecap:butt;stroke-linejoin:miter;stroke:rgb(0%,0%,0%);stroke-opacity:1;stroke-miterlimit:10;" d="M 82.074219 159.808594 L 89.15625 132.773438 "/>
<path style="fill:none;stroke-width:1.2;stroke-linecap:butt;stroke-linejoin:miter;stroke:rgb(0%,0%,0%);stroke-opacity:1;stroke-miterlimit:10;" d="M 82.074219 159.808594 L 68.597656 163.503906 "/>
<path style="fill:none;stroke-width:1.2;stroke-linecap:butt;stroke-linejoin:miter;stroke:rgb(100%,0%,0%);stroke-opacity:1;stroke-miterlimit:10;" d="M 68.597656 163.503906 L 55.125 167.195312 "/>
<path style="fill:none;stroke-width:1.2;stroke-linecap:butt;stroke-linejoin:miter;stroke:rgb(0%,0%,0%);stroke-opacity:1;stroke-miterlimit:10;" d="M 89.15625 132.773438 L 116.105469 125.386719 "/>
<path style="fill:none;stroke-width:1.2;stroke-linecap:butt;stroke-linejoin:miter;stroke:rgb(0%,0%,0%);stroke-opacity:1;stroke-miterlimit:10;" d="M 93.589844 138.378906 L 115.148438 132.46875 "/>
<path style="fill:none;stroke-width:1.2;stroke-linecap:butt;stroke-linejoin:miter;stroke:rgb(0%,0%,0%);stroke-opacity:1;stroke-miterlimit:10;" d="M 116.105469 125.386719 L 135.980469 145.035156 "/>
<path style="fill:none;stroke-width:1.2;stroke-linecap:butt;stroke-linejoin:miter;stroke:rgb(0%,0%,0%);stroke-opacity:1;stroke-miterlimit:10;" d="M 116.105469 125.386719 L 123.1875 98.351562 "/>
<path style="fill:none;stroke-width:1.2;stroke-linecap:butt;stroke-linejoin:miter;stroke:rgb(0%,0%,0%);stroke-opacity:1;stroke-miterlimit:10;" d="M 135.980469 145.035156 L 128.902344 172.070312 "/>
<path style="fill:none;stroke-width:1.2;stroke-linecap:butt;stroke-linejoin:miter;stroke:rgb(0%,0%,0%);stroke-opacity:1;stroke-miterlimit:10;" d="M 128.910156 146.074219 L 123.25 167.703125 "/>
<path style=" stroke:none;fill-rule:nonzero;fill:rgb(0%,0%,0%);fill-opacity:1;" d="M 150.140625 90.964844 L 121.882812 93.597656 L 124.488281 103.109375 Z M 150.140625 90.964844 "/>
<path style="fill:none;stroke-width:1.2;stroke-linecap:butt;stroke-linejoin:miter;stroke:rgb(0%,0%,0%);stroke-opacity:1;stroke-miterlimit:10;" d="M 150.140625 90.964844 L 160.003906 64.820312 "/>
<path style="fill:none;stroke-width:1.2;stroke-linecap:butt;stroke-linejoin:miter;stroke:rgb(0%,0%,0%);stroke-opacity:1;stroke-miterlimit:10;" d="M 171.957031 108.429688 L 150.140625 90.964844 "/>
<path style="fill:none;stroke-width:1.2;stroke-linecap:butt;stroke-linejoin:miter;stroke:rgb(0%,0%,0%);stroke-opacity:1;stroke-miterlimit:10;" d="M 160.003906 64.820312 L 173.960938 65.472656 "/>
<path style="fill:none;stroke-width:1.2;stroke-linecap:butt;stroke-linejoin:miter;stroke:rgb(100%,0%,0%);stroke-opacity:1;stroke-miterlimit:10;" d="M 173.960938 65.472656 L 187.921875 66.125 "/>
<path style="fill:none;stroke-width:1.2;stroke-linecap:butt;stroke-linejoin:miter;stroke:rgb(100%,0%,0%);stroke-opacity:1;stroke-miterlimit:10;" d="M 187.921875 66.125 L 191.613281 79.597656 "/>
<path style="fill:none;stroke-width:1.2;stroke-linecap:butt;stroke-linejoin:miter;stroke:rgb(0%,0%,0%);stroke-opacity:1;stroke-miterlimit:10;" d="M 191.613281 79.597656 L 195.308594 93.074219 "/>
<path style=" stroke:none;fill-rule:nonzero;fill:rgb(100%,100%,100%);fill-opacity:1;" d="M 183.921875 59.625 L 192.921875 59.625 L 192.921875 72.625 L 183.921875 72.625 Z M 183.921875 59.625 "/>
<g style="fill:rgb(100%,0%,0%);fill-opacity:1;">
  <use xlink:href="#glyph0-1" x="183.921875" y="69.526367"/>
</g>
<path style="fill:none;stroke-width:1.2;stroke-linecap:butt;stroke-linejoin:miter;stroke:rgb(0%,0%,0%);stroke-opacity:1;stroke-miterlimit:10;" d="M 194.148438 96.152344 L 207.21875 101.085938 "/>
<path style="fill:none;stroke-width:1.2;stroke-linecap:butt;stroke-linejoin:miter;stroke:rgb(100%,0%,0%);stroke-opacity:1;stroke-miterlimit:10;" d="M 207.21875 101.085938 L 220.292969 106.019531 "/>
<path style="fill:none;stroke-width:1.2;stroke-linecap:butt;stroke-linejoin:miter;stroke:rgb(0%,0%,0%);stroke-opacity:1;stroke-miterlimit:10;" d="M 196.46875 90 L 209.542969 94.933594 "/>
<path style="fill:none;stroke-width:1.2;stroke-linecap:butt;stroke-linejoin:miter;stroke:rgb(100%,0%,0%);stroke-opacity:1;stroke-miterlimit:10;" d="M 209.542969 94.933594 L 222.613281 99.867188 "/>
<path style="fill:none;stroke-width:1.2;stroke-linecap:butt;stroke-linejoin:miter;stroke:rgb(0%,0%,0%);stroke-opacity:1;stroke-miterlimit:10;" d="M 195.308594 93.074219 L 171.957031 108.429688 "/>
<path style=" stroke:none;fill-rule:nonzero;fill:rgb(100%,100%,100%);fill-opacity:1;" d="M 217.453125 96.441406 L 226.453125 96.441406 L 226.453125 109.441406 L 217.453125 109.441406 Z M 217.453125 96.441406 "/>
<g style="fill:rgb(100%,0%,0%);fill-opacity:1;">
  <use xlink:href="#glyph0-1" x="217.453125" y="106.342773"/>
</g>
<path style="fill:none;stroke-width:1;stroke-linecap:butt;stroke-linejoin:miter;stroke:rgb(0%,0%,0%);stroke-opacity:1;stroke-miterlimit:10;" d="M 171.957031 108.429688 L 171.957031 108.429688 M 171.296875 111.355469 L 172.339844 111.40625 M 170.640625 114.285156 L 172.722656 114.378906 M 169.980469 117.210938 L 173.105469 117.355469 M 169.324219 120.136719 L 173.488281 120.332031 M 168.664062 123.0625 L 173.871094 123.308594 M 168.003906 125.992188 L 174.253906 126.28125 M 167.347656 128.917969 L 174.636719 129.257812 M 166.6875 131.84375 L 175.019531 132.234375 M 166.03125 134.769531 L 175.402344 135.207031 M 165.726562 136.117188 L 175.578125 136.574219 "/>
<path style="fill:none;stroke-width:1.2;stroke-linecap:butt;stroke-linejoin:miter;stroke:rgb(0%,0%,0%);stroke-opacity:1;stroke-miterlimit:10;" d="M 170.652344 136.34375 L 194.175781 151.433594 "/>
<path style="fill:none;stroke-width:1.2;stroke-linecap:butt;stroke-linejoin:miter;stroke:rgb(0%,0%,0%);stroke-opacity:1;stroke-miterlimit:10;" d="M 194.175781 151.433594 L 192.875 179.347656 "/>
<path style="fill:none;stroke-width:1.2;stroke-linecap:butt;stroke-linejoin:miter;stroke:rgb(0%,0%,0%);stroke-opacity:1;stroke-miterlimit:10;" d="M 200.617188 154.53125 L 199.574219 176.863281 "/>
<path style="fill:none;stroke-width:1.2;stroke-linecap:butt;stroke-linejoin:miter;stroke:rgb(0%,0%,0%);stroke-opacity:1;stroke-miterlimit:10;" d="M 219.003906 138.601562 L 194.175781 151.433594 "/>
<path style="fill:none;stroke-width:1.2;stroke-linecap:butt;stroke-linejoin:miter;stroke:rgb(0%,0%,0%);stroke-opacity:1;stroke-miterlimit:10;" d="M 192.875 179.347656 L 216.398438 194.433594 "/>
<path style="fill:none;stroke-width:1.2;stroke-linecap:butt;stroke-linejoin:miter;stroke:rgb(0%,0%,0%);stroke-opacity:1;stroke-miterlimit:10;" d="M 216.398438 194.433594 L 241.226562 181.605469 "/>
<path style="fill:none;stroke-width:1.2;stroke-linecap:butt;stroke-linejoin:miter;stroke:rgb(0%,0%,0%);stroke-opacity:1;stroke-miterlimit:10;" d="M 215.863281 187.308594 L 235.722656 177.046875 "/>
<path style="fill:none;stroke-width:1.2;stroke-linecap:butt;stroke-linejoin:miter;stroke:rgb(0%,0%,0%);stroke-opacity:1;stroke-miterlimit:10;" d="M 216.398438 194.433594 L 215.746094 208.394531 "/>
<path style="fill:none;stroke-width:1.2;stroke-linecap:butt;stroke-linejoin:miter;stroke:rgb(100%,0%,0%);stroke-opacity:1;stroke-miterlimit:10;" d="M 215.746094 208.394531 L 215.09375 222.351562 "/>
<path style="fill:none;stroke-width:1.2;stroke-linecap:butt;stroke-linejoin:miter;stroke:rgb(0%,0%,0%);stroke-opacity:1;stroke-miterlimit:10;" d="M 241.226562 181.605469 L 242.53125 153.691406 "/>
<path style="fill:none;stroke-width:1.2;stroke-linecap:butt;stroke-linejoin:miter;stroke:rgb(0%,0%,0%);stroke-opacity:1;stroke-miterlimit:10;" d="M 241.226562 181.605469 L 252.988281 189.148438 "/>
<path style="fill:none;stroke-width:1.2;stroke-linecap:butt;stroke-linejoin:miter;stroke:rgb(100%,0%,0%);stroke-opacity:1;stroke-miterlimit:10;" d="M 252.988281 189.148438 L 264.75 196.691406 "/>
<path style="fill:none;stroke-width:1.2;stroke-linecap:butt;stroke-linejoin:miter;stroke:rgb(0%,0%,0%);stroke-opacity:1;stroke-miterlimit:10;" d="M 242.53125 153.691406 L 219.003906 138.601562 "/>
<path style="fill:none;stroke-width:1.2;stroke-linecap:butt;stroke-linejoin:miter;stroke:rgb(0%,0%,0%);stroke-opacity:1;stroke-miterlimit:10;" d="M 236.628906 157.714844 L 217.808594 145.648438 "/>
<path style=" stroke:none;fill-rule:nonzero;fill:rgb(100%,100%,100%);fill-opacity:1;" d="M 256.75 190.191406 L 273.75 190.191406 L 273.75 203.191406 L 256.75 203.191406 Z M 256.75 190.191406 "/>
<g style="fill:rgb(100%,0%,0%);fill-opacity:1;">
  <use xlink:href="#glyph0-1" x="256.75" y="200.092773"/>
  <use xlink:href="#glyph0-2" x="265.150391" y="200.092773"/>
</g>
<path style="fill:none;stroke-width:1.2;stroke-linecap:butt;stroke-linejoin:miter;stroke:rgb(100%,0%,0%);stroke-opacity:1;stroke-miterlimit:10;" d="M 215.09375 222.351562 L 202.679688 228.765625 "/>
<path style="fill:none;stroke-width:1.2;stroke-linecap:butt;stroke-linejoin:miter;stroke:rgb(0%,0%,0%);stroke-opacity:1;stroke-miterlimit:10;" d="M 202.679688 228.765625 L 190.265625 235.179688 "/>
<path style=" stroke:none;fill-rule:nonzero;fill:rgb(100%,100%,100%);fill-opacity:1;" d="M 211.09375 215.851562 L 220.09375 215.851562 L 220.09375 228.851562 L 211.09375 228.851562 Z M 211.09375 215.851562 "/>
<g style="fill:rgb(100%,0%,0%);fill-opacity:1;">
  <use xlink:href="#glyph0-1" x="211.09375" y="225.75293"/>
</g>
<path style="fill:none;stroke-width:1.2;stroke-linecap:butt;stroke-linejoin:miter;stroke:rgb(100%,0%,0%);stroke-opacity:1;stroke-miterlimit:10;" d="M 55.125 167.195312 L 45.1875 157.371094 "/>
<path style="fill:none;stroke-width:1.2;stroke-linecap:butt;stroke-linejoin:miter;stroke:rgb(0%,0%,0%);stroke-opacity:1;stroke-miterlimit:10;" d="M 45.1875 157.371094 L 35.25 147.546875 "/>
<path style=" stroke:none;fill-rule:nonzero;fill:rgb(100%,100%,100%);fill-opacity:1;" d="M 51.125 160.695312 L 60.125 160.695312 L 60.125 173.695312 L 51.125 173.695312 Z M 51.125 160.695312 "/>
<g style="fill:rgb(100%,0%,0%);fill-opacity:1;">
  <use xlink:href="#glyph0-1" x="51.125" y="170.59668"/>
</g>
</g>
</svg>

<svg xmlns="http://www.w3.org/2000/svg" xmlns:xlink="http://www.w3.org/1999/xlink" width="300pt" height="300pt" viewBox="0 0 300 300"><defs><symbol overflow="visible"><path d="M.547 1.938V-7.75h5.5v9.688zm.625-.61h4.266v-8.47H1.171zm0 0"/></symbol><symbol overflow="visible" id="a"><path d="M4.328-7.28c-.78 0-1.406.296-1.875.89-.46.585-.687 1.382-.687 2.39 0 1.012.226 1.813.687 2.406.47.586 1.094.875 1.875.875.79 0 1.414-.288 1.875-.874.457-.593.688-1.394.688-2.406 0-1.008-.23-1.805-.687-2.39-.46-.594-1.086-.89-1.875-.89zm0-.892c1.125 0 2.024.383 2.703 1.14C7.708-6.28 8.048-5.27 8.048-4c0 1.262-.34 2.273-1.016 3.03C6.353-.22 5.454.157 4.33.157S2.3-.22 1.625-.97c-.668-.75-1-1.757-1-3.03 0-1.27.332-2.28 1-3.03.676-.76 1.578-1.142 2.703-1.142zm0 0"/></symbol><symbol overflow="visible" id="b"><path d="M1.078-8.016h1.094v3.282H6.11v-3.282h1.077V0H6.11v-3.813H2.17V0H1.078zm0 0"/></symbol></defs><g><path fill="#fff" d="M0 0h300v300H0z"/><path d="M67.918 213.88l13.477-3.692" stroke-width="1.2" stroke="#000" stroke-miterlimit="10" fill="none"/><path d="M81.395 210.188l13.476-3.696M94.87 206.492l3.54-13.515" stroke-width="1.2" stroke="#f00" stroke-miterlimit="10" fill="none"/><path d="M98.41 192.977l3.54-13.52" stroke-width="1.2" stroke="#000" stroke-miterlimit="10" fill="none"/><path d="M90.87 199.992h9v13h-9zm0 0" fill="#fff"/><use xlink:href="#a" x="90.871" y="209.894" fill="#f00"/><path d="M101.95 179.457L82.073 159.81M104.586 172.816l-15.898-15.718M128.902 172.07l-26.953 7.387M82.074 159.81l7.082-27.037M82.074 159.81l-13.476 3.694" stroke-width="1.2" stroke="#000" stroke-miterlimit="10" fill="none"/><path d="M68.598 163.504l-13.473 3.69" stroke-width="1.2" stroke="#f00" stroke-miterlimit="10" fill="none"/><path d="M89.156 132.773l26.95-7.386M93.59 138.38l21.558-5.91M116.105 125.387l19.875 19.648M116.105 125.387l7.082-27.035M135.98 145.035l-7.078 27.035M128.91 146.074l-5.66 21.63" stroke-width="1.2" stroke="#000" stroke-miterlimit="10" fill="none"/><path d="M150.14 90.965l-28.257 2.633 2.605 9.51zm0 0"/><path d="M150.14 90.965l9.864-26.145M171.957 108.43L150.14 90.965M160.004 64.82l13.957.653" stroke-width="1.2" stroke="#000" stroke-miterlimit="10" fill="none"/><path d="M173.96 65.473l13.962.652M187.922 66.125l3.69 13.473" stroke-width="1.2" stroke="#f00" stroke-miterlimit="10" fill="none"/><path d="M191.613 79.598l3.696 13.476" stroke-width="1.2" stroke="#000" stroke-miterlimit="10" fill="none"/><path d="M183.922 59.625h9v13h-9zm0 0" fill="#fff"/><use xlink:href="#a" x="183.922" y="69.526" fill="#f00"/><path d="M194.148 96.152l13.07 4.934" stroke-width="1.2" stroke="#000" stroke-miterlimit="10" fill="none"/><path d="M207.22 101.086l13.073 4.934" stroke-width="1.2" stroke="#f00" stroke-miterlimit="10" fill="none"/><path d="M196.47 90l13.073 4.934" stroke-width="1.2" stroke="#000" stroke-miterlimit="10" fill="none"/><path d="M209.543 94.934l13.07 4.933" stroke-width="1.2" stroke="#f00" stroke-miterlimit="10" fill="none"/><path d="M195.31 93.074l-23.353 15.356" stroke-width="1.2" stroke="#000" stroke-miterlimit="10" fill="none"/><path d="M217.453 96.44h9v13h-9zm0 0" fill="#fff"/><use xlink:href="#a" x="217.453" y="106.343" fill="#f00"/><path d="M171.957 108.43m-.66 2.925l1.043.05m-1.7 2.88l2.083.094m-2.743 2.83l3.125.145m-3.78 2.782l4.163.195m-4.824 2.73l5.207.247m-5.866 2.682l6.25.29m-6.906 2.636l7.29.34m-7.95 2.586l8.332.39m-8.99 2.536l9.372.437m-9.675.91l9.85.457" stroke="#000" stroke-miterlimit="10" fill="none"/><path d="M170.652 136.344l23.524 15.09M194.176 151.434l-1.3 27.914M200.617 154.53l-1.043 22.333M219.004 138.602l-24.828 12.832M192.875 179.348l23.523 15.086M216.398 194.434l24.83-12.83M215.863 187.31l19.86-10.263M216.398 194.434l-.652 13.96" stroke-width="1.2" stroke="#000" stroke-miterlimit="10" fill="none"/><path d="M215.746 208.395l-.652 13.957" stroke-width="1.2" stroke="#f00" stroke-miterlimit="10" fill="none"/><path d="M241.227 181.605l1.304-27.914M241.227 181.605l11.76 7.543" stroke-width="1.2" stroke="#000" stroke-miterlimit="10" fill="none"/><path d="M252.988 189.148l11.762 7.543" stroke-width="1.2" stroke="#f00" stroke-miterlimit="10" fill="none"/><path d="M242.53 153.69l-23.526-15.088M236.63 157.715l-18.82-12.067" stroke-width="1.2" stroke="#000" stroke-miterlimit="10" fill="none"/><path d="M256.75 190.19h17v13h-17zm0 0" fill="#fff"/><g fill="#f00"><use xlink:href="#a" x="256.75" y="200.093"/><use xlink:href="#b" x="265.15" y="200.093"/></g><path d="M215.094 222.352l-12.414 6.414" stroke-width="1.2" stroke="#f00" stroke-miterlimit="10" fill="none"/><path d="M202.68 228.766l-12.414 6.414" stroke-width="1.2" stroke="#000" stroke-miterlimit="10" fill="none"/><path d="M211.094 215.852h9v13h-9zm0 0" fill="#fff"/><use xlink:href="#a" x="211.094" y="225.753" fill="#f00"/><path d="M55.125 167.195l-9.938-9.824" stroke-width="1.2" stroke="#f00" stroke-miterlimit="10" fill="none"/><path d="M45.188 157.37l-9.938-9.823" stroke-width="1.2" stroke="#000" stroke-miterlimit="10" fill="none"/><path d="M51.125 160.695h9v13h-9zm0 0" fill="#fff"/><use xlink:href="#a" x="51.125" y="170.597" fill="#f00"/></g></svg>
